X: 1
T:The Fairhaired Boy
T:An Buachaill\'in Fionn
R:Reel
S:Robert Eckert <Robert@WHISTLEPLAYERS.ZZN.COM> irtrad-l 2001-5-03
Z:Adrian Scahill
M:4/4
L:1/8
K:G
A3G (3EFG AB|ceAc BGG2|ABAG FAeg|1 fde^c Add=c:|2fde^c Adde||\
K:D\
f2df (3efe de|(3fgf df e=cAe|f2df efde|fdec Adde|\
f2df efde|f2df ecA2|ABcd efge|ageg fddc||\
